build/img/icons/payment.svg

<svg width="37" height="36" viewBox="0 0 37 36" fill="none" xmlns="http://www.w3.org/2000/svg">
<path d="M8 13.5C8.39782 13.5 8.77936 13.658 9.06066 13.9393C9.34196 14.2206 9.5 14.6022 9.5 15C11.8567 14.9965 14.1455 15.7894 15.995 17.25H19.25C21.2495 17.25 23.045 18.12 24.281 19.5H29C30.4179 19.4996 31.8068 19.9012 33.0058 20.6581C34.2048 21.415 35.1646 22.4963 35.774 23.7765C32.2265 28.458 26.483 31.5 20 31.5C15.815 31.5 12.275 30.5955 9.41 29.013C9.30507 29.3026 9.11336 29.5528 8.86102 29.7294C8.60869 29.906 8.30801 30.0005 8 30H3.5C3.10218 30 2.72064 29.842 2.43934 29.5607C2.15804 29.2794 2 28.8978 2 28.5V15C2 14.6022 2.15804 14.2206 2.43934 13.9393C2.72064 13.658 3.10218 13.5 3.5 13.5H8ZM9.5015 18L9.5 25.533L9.5675 25.581C12.26 27.471 15.767 28.5 20 28.5C24.506 28.5 28.6985 26.766 31.7525 23.805L31.952 23.6055L31.772 23.4555C31.0637 22.9008 30.2051 22.5715 29.3075 22.5105L29 22.5H25.8335C25.9415 22.983 26 23.484 26 24V25.5H12.5V22.5L22.685 22.4985L22.634 22.3815C22.3465 21.7808 21.9044 21.2675 21.3529 20.8942C20.8014 20.5209 20.1605 20.3012 19.496 20.2575L19.25 20.25H14.855C14.158 19.5371 13.3254 18.9708 12.4063 18.5844C11.4872 18.198 10.5 17.9993 9.503 18H9.5015ZM6.5 16.5H5V27H6.5V16.5ZM27.5 7.5C28.6935 7.5 29.8381 7.97411 30.682 8.81802C31.5259 9.66193 32 10.8065 32 12C32 13.1935 31.5259 14.3381 30.682 15.182C29.8381 16.0259 28.6935 16.5 27.5 16.5C26.3065 16.5 25.1619 16.0259 24.318 15.182C23.4741 14.3381 23 13.1935 23 12C23 10.8065 23.4741 9.66193 24.318 8.81802C25.1619 7.97411 26.3065 7.5 27.5 7.5ZM27.5 10.5C27.1022 10.5 26.7206 10.658 26.4393 10.9393C26.158 11.2206 26 11.6022 26 12C26 12.3978 26.158 12.7794 26.4393 13.0607C26.7206 13.342 27.1022 13.5 27.5 13.5C27.8978 13.5 28.2794 13.342 28.5607 13.0607C28.842 12.7794 29 12.3978 29 12C29 11.6022 28.842 11.2206 28.5607 10.9393C28.2794 10.658 27.8978 10.5 27.5 10.5ZM17 3C18.1935 3 19.3381 3.47411 20.182 4.31802C21.0259 5.16193 21.5 6.30653 21.5 7.5C21.5 8.69347 21.0259 9.83807 20.182 10.682C19.3381 11.5259 18.1935 12 17 12C15.8065 12 14.6619 11.5259 13.818 10.682C12.9741 9.83807 12.5 8.69347 12.5 7.5C12.5 6.30653 12.9741 5.16193 13.818 4.31802C14.6619 3.47411 15.8065 3 17 3ZM17 6C16.6022 6 16.2206 6.15804 15.9393 6.43934C15.658 6.72064 15.5 7.10218 15.5 7.5C15.5 7.89782 15.658 8.27936 15.9393 8.56066C16.2206 8.84196 16.6022 9 17 9C17.3978 9 17.7794 8.84196 18.0607 8.56066C18.342 8.27936 18.5 7.89782 18.5 7.5C18.5 7.10218 18.342 6.72064 18.0607 6.43934C17.7794 6.15804 17.3978 6 17 6Z" fill="#5CC773"/>
</svg>

<svg width="37" height="36" fill="none" xmlns="http://www.w3.org/2000/svg">
    <path d="M8 13.5A1.5 1.5 0 0 1 9.5 15c2.357-.004 4.646.79 6.495 2.25h3.255c2 0 3.795.87 5.031 2.25H29a7.5 7.5 0 0 1 6.774 4.276C32.227 28.459 26.483 31.5 20 31.5c-4.185 0-7.725-.904-10.59-2.487A1.497 1.497 0 0 1 8 30H3.5A1.5 1.5 0 0 1 2 28.5V15a1.5 1.5 0 0 1 1.5-1.5H8zM9.502 18 9.5 25.533l.068.048C12.26 27.471 15.767 28.5 20 28.5c4.506 0 8.698-1.734 11.753-4.695l.199-.2-.18-.15a4.491 4.491 0 0 0-2.464-.944L29 22.5h-3.166c.108.483.166.984.166 1.5v1.5H12.5v-3l10.185-.002-.051-.117a3.752 3.752 0 0 0-3.138-2.123l-.246-.008h-4.395A7.477 7.477 0 0 0 9.503 18h-.002zM6.5 16.5H5V27h1.5V16.5zm21-9a4.5 4.5 0 1 1 0 9 4.5 4.5 0 0 1 0-9zm0 3a1.5 1.5 0 1 0 0 3 1.5 1.5 0 0 0 0-3zM17 3a4.5 4.5 0 1 1 0 9 4.5 4.5 0 0 1 0-9zm0 3a1.5 1.5 0 1 0 0 3 1.5 1.5 0 0 0 0-3z" fill="#5CC773"/>
</svg>
